X:1
T:Title
%%score { ( 1 3 ) | 2 }
L:1/8
M:3/4
K:Eb
V:1 treble nm="Grand Piano"
V:3 treble 
V:2 bass 
V:1
 z2 z2[Q:1/4=92] [B,EG]2 | [EGB]2 [DFB]2 [CEA]2 | [B,CG]2 [A,CF]2[K:bass] [G,CE]2 | %3
 [F,B,D]2[K:treble] [B,CE]2 [A,DF]2 | [G,E]4 [G,_DE]2 | [Cc]2 [Ec]2 [Fc]2 | %6
 [_Gc]2 [B,=GB]2 [B,EG]2 | [=A,EF]2 [A,EG]2 [A,EF]2 | [DF]2- [F,DF]2 B2 | e2 d2 [EGc]2 | %10
 [_DGB]2 [CA]2 [B,EG]2 | [A,DF]2 [B,DG]2 [A,DF]2 | [G,E]4 [G,_DE]2 | [A,CE]2 [Cc]2 [Ec]2 | %14
 [Ec]2 [EB]2 [EG]2 | [DG]2 [CG]2 [DF]2 |[M:2/4] E4 |] %17
V:2
 z2 z2 E,2 | E,2 E,2 E,2 | A,,2 A,,2 A,,2 | B,,2 B,,2 =B,,2 | C,4 B,,2 | [A,,A,]2 [C,A,]2 [D,A,]2 | %6
 [E,=A,]2 E,2 E,2 | C,2 C,2 C,2 | B,,4 [F,A,D]2 | [E,G,E]2 [E,B,E]2 E,2 | E,2 E,2 E,2 | %11
 B,,2 B,,2 =B,,2 | C,4 B,,2 | A,,2 [A,,E,]2 [A,,E,]2 | [B,,G,]2 [B,,G,]2 [B,,B,]2 | %15
 [B,,B,]2 [B,,A,]2 [B,,A,]2 |[M:2/4] [E,G,]4 |] %17
V:3
 x6 | x6 | x4[K:bass] x2 | x2[K:treble] x4 | x6 | x6 | x6 | x6 | B,2 z2 z2 | x6 | x6 | x6 | x6 | %13
 x6 | x6 | x6 |[M:2/4] x4 |] %17

